icons/OpenLotus/actions/24/dialog-xml-editor.svg

<?xml version="1.0" encoding="UTF-8" standalone="no"?>
<!-- Created with Inkscape (http://www.inkscape.org/) -->

<svg
   xmlns:dc="http://purl.org/dc/elements/1.1/"
   xmlns:cc="http://creativecommons.org/ns#"
   xmlns:rdf="http://www.w3.org/1999/02/22-rdf-syntax-ns#"
   xmlns:svg="http://www.w3.org/2000/svg"
   xmlns="http://www.w3.org/2000/svg"
   xmlns:sodipodi="http://sodipodi.sourceforge.net/DTD/sodipodi-0.dtd"
   xmlns:inkscape="http://www.inkscape.org/namespaces/inkscape"
   width="24"
   height="24"
   viewBox="0 0 6.3499997 6.3499997"
   version="1.1"
   id="main"
   inkscape:version="0.92+devel (5451be0409, 2017-08-29, custom)"
   sodipodi:docname="format-text-code.svg">
  <defs
     id="ol-defs" />
  <sodipodi:namedview
     id="base"
     pagecolor="#002466"
     bordercolor="#ffffff"
     borderopacity="0.38039216"
     inkscape:pageopacity="1"
     inkscape:pageshadow="2"
     inkscape:zoom="40.551468"
     inkscape:cx="4.2515654"
     inkscape:cy="7.9030552"
     inkscape:document-units="px"
     inkscape:current-layer="main"
     inkscape:document-rotation="0"
     showgrid="false"
     inkscape:showpageshadow="false"
     borderlayer="true"
     inkscape:window-width="1920"
     inkscape:window-height="1025"
     inkscape:window-x="0"
     inkscape:window-y="26"
     inkscape:window-maximized="1"
     units="px" />
  <metadata
     id="metadata5">
    <rdf:RDF>
      <cc:Work
         rdf:about="">
        <dc:format>image/svg+xml</dc:format>
        <dc:type
           rdf:resource="http://purl.org/dc/dcmitype/StillImage" />
        <dc:title></dc:title>
      </cc:Work>
    </rdf:RDF>
  </metadata>
  <g
     id="g844"
     inkscape:label="#format-text-code"
     transform="scale(1.5)"
     style="stroke-width:0.66666669">
    <path
       inkscape:connector-curvature="0"
       inkscape:label="#boundary"
       id="rect811"
       d="M 4.4595339e-8,4.4595335e-8 H 4.2333332 V 4.2333332 H 4.4595339e-8 Z"
       style="fill:none;stroke-width:0.13657102" />
    <path
       inkscape:label="#"
       style="opacity:0.6;stroke-width:0.66666669"
       inkscape:connector-curvature="0"
       d="m 2.2243884,1.1411626 -0.013304,0.042059 -0.5617839,1.817106 0.2935522,0.091843 0.5755172,-1.8591648 z m -0.9145615,0.1360469 -0.030471,0.032617 -0.65062165,0.6909638 -0.099568,0.1064342 0.099568,0.106005 L 1.3059645,2.9406728 1.5261287,2.7265169 0.94889505,2.1072245 1.5299913,1.4913654 Z m 1.6136798,0 -0.032188,0.031329 -0.1879765,0.1828266 0.5810965,0.6158592 -0.577234,0.6192923 0.2201645,0.214156 0.6772303,-0.7274433 0.099567,-0.1060052 -0.099567,-0.1064343 z"
       fill="#d0d0d0"
       id="path835" />
  </g>
</svg>

<?xml version="1.0" encoding="UTF-8" standalone="no"?>
<!-- Created with Inkscape (http://www.inkscape.org/) -->

<svg
   xmlns:dc="http://purl.org/dc/elements/1.1/"
   xmlns:cc="http://creativecommons.org/ns#"
   xmlns:rdf="http://www.w3.org/1999/02/22-rdf-syntax-ns#"
   xmlns:svg="http://www.w3.org/2000/svg"
   xmlns="http://www.w3.org/2000/svg"
   xmlns:sodipodi="http://sodipodi.sourceforge.net/DTD/sodipodi-0.dtd"
   xmlns:inkscape="http://www.inkscape.org/namespaces/inkscape"
   width="24"
   height="24"
   viewBox="0 0 6.3499998 6.3499998"
   version="1.1"
   id="svg8"
   inkscape:version="0.92+devel (7f48eea3d0, 2017-08-15, custom)"
   sodipodi:docname="dialog-xml-editor.svg">
  <defs
     id="defs2">
    <style
       id="current-color-scheme">      .ColorScheme-Text {
        color:#d0d0d0;
        stop-color:#d0d0d0;
      }
      .ColorScheme-Background {
        color:#212121;
        stop-color:#212121;
      }
      .ColorScheme-Highlight {
        color:#0039a9;
        stop-color:#0039a9;
      }
      .ColorScheme-ViewText {
        color:#d0d0d0;
        stop-color:#d0d0d0;
      }
      .ColorScheme-ViewBackground {
        color:#19191b;
        stop-color:#19191b;
      }
      .ColorScheme-ViewHover {
        color:#005cc7;
        stop-color:#005cc7;
      }
      .ColorScheme-ViewFocus{
        color:#002466;
        stop-color:#002466;
      }
      .ColorScheme-ButtonText {
        color:#d0d0d0;
        stop-color:#d0d0d0;
      }
      .ColorScheme-ButtonBackground {
        color:#232323;
        stop-color:#232323;                             
      }                                                 
      .ColorScheme-ButtonHover {                        
        color:#005cc7;                                  
        stop-color:#005cc7;                             
      }                                                 
      .ColorScheme-ButtonFocus{                         
        color:#0039a9;                                  
        stop-color:#0039a9;                             
      }</style>
  </defs>
  <sodipodi:namedview
     id="base"
     pagecolor="#002466"
     bordercolor="#ffffff"
     borderopacity="0.38039216"
     inkscape:pageopacity="1"
     inkscape:pageshadow="2"
     inkscape:zoom="25.25"
     inkscape:cx="7.8217823"
     inkscape:cy="8"
     inkscape:document-units="px"
     inkscape:current-layer="svg8"
     inkscape:document-rotation="0"
     showgrid="false"
     inkscape:showpageshadow="false"
     borderlayer="true"
     inkscape:window-width="1920"
     inkscape:window-height="1023"
     inkscape:window-x="0"
     inkscape:window-y="28"
     inkscape:window-maximized="1"
     units="px" />
  <metadata
     id="metadata5">
    <rdf:RDF>
      <cc:Work
         rdf:about="">
        <dc:format>image/svg+xml</dc:format>
        <dc:type
           rdf:resource="http://purl.org/dc/dcmitype/StillImage" />
        <dc:title></dc:title>
      </cc:Work>
    </rdf:RDF>
  </metadata>
  <g
     id="g843"
     inkscape:label="#dialog-xml-editor"
     transform="scale(1.5)">
    <path
       inkscape:label="#boundary"
       inkscape:connector-curvature="0"
       id="rect811"
       d="M 0,0 H 4.2333332 V 4.2333332 H 0 Z"
       style="fill:none;stroke-width:0.25454992;stroke-linecap:round" />
    <path
       style="color:#f2f2f2;font-style:normal;font-variant:normal;font-weight:normal;font-stretch:normal;font-size:medium;line-height:normal;font-family:sans-serif;font-variant-ligatures:normal;font-variant-position:normal;font-variant-caps:normal;font-variant-numeric:normal;font-variant-alternates:normal;font-variant-east-asian:normal;font-feature-settings:normal;text-indent:0;text-align:start;text-decoration:none;text-decoration-line:none;text-decoration-style:solid;text-decoration-color:#000000;letter-spacing:normal;word-spacing:normal;text-transform:none;writing-mode:lr-tb;direction:ltr;text-orientation:mixed;dominant-baseline:auto;baseline-shift:baseline;text-anchor:start;white-space:normal;shape-padding:0;clip-rule:nonzero;display:inline;overflow:visible;visibility:visible;opacity:0.6;isolation:auto;mix-blend-mode:normal;color-interpolation:sRGB;color-interpolation-filters:linearRGB;solid-color:#000000;solid-opacity:1;vector-effect:none;fill:#d0d0d0;fill-opacity:1;fill-rule:nonzero;stroke:none;stroke-width:0.08789404;stroke-linecap:butt;stroke-linejoin:miter;stroke-miterlimit:4;stroke-dasharray:none;stroke-dashoffset:0;stroke-opacity:1;color-rendering:auto;image-rendering:auto;shape-rendering:auto;text-rendering:auto;enable-background:accumulate"
       d="M 2.2243879,1.1411632 2.2110837,1.1832215 1.6493,3.0003275 1.9428522,3.09217 2.5183694,1.2330052 Z M 1.3098265,1.2772101 1.2793558,1.3098271 0.62873409,2.0007908 0.52916669,2.107225 0.62873409,2.21323 1.3059644,2.9406735 1.5261286,2.7265175 0.94889489,2.1072251 1.5299912,1.491366 Z m 1.6136797,0 -0.032188,0.031329 L 2.7033418,1.491366 3.2844382,2.1072251 2.7072043,2.7265174 2.9273687,2.9406734 3.6045991,2.2132301 3.7041665,2.107225 3.6045991,2.0007907 Z"
       id="path4309"
       inkscape:connector-curvature="0"
       inkscape:label="#" />
  </g>
</svg>
